svg/color/ethbear.svg

<?xml version="1.0" encoding="UTF-8" ?>
<!DOCTYPE svg PUBLIC "-//W3C//DTD SVG 1.1//EN" "http://www.w3.org/Graphics/SVG/1.1/DTD/svg11.dtd">
<svg width="250pt" height="214pt" viewBox="0 0 250 214" version="1.1" xmlns="http://www.w3.org/2000/svg">
<g id="#ffffffff">
<path fill="#ffffff" opacity="1.00" d=" M 0.00 0.00 L 250.00 0.00 L 250.00 214.00 L 0.00 214.00 L 0.00 0.00 M 73.33 12.33 C 72.27 18.84 72.93 25.44 72.82 32.00 C 72.88 41.02 72.71 50.05 72.78 59.07 C 73.11 60.81 72.46 63.53 74.58 64.28 C 78.98 65.18 83.53 64.54 88.00 64.63 C 131.66 64.65 175.33 64.60 218.99 64.65 C 223.25 64.53 227.74 65.37 231.80 63.79 C 232.75 61.68 232.65 59.31 232.71 57.05 C 232.54 44.35 232.53 31.65 232.71 18.95 C 232.77 16.63 232.41 14.33 231.95 12.05 C 226.71 10.86 221.32 11.53 216.01 11.46 C 170.00 11.41 123.99 11.53 77.98 11.40 C 76.39 11.46 74.86 11.93 73.33 12.33 M 11.54 83.04 C 11.53 99.68 11.49 116.32 11.56 132.96 C 14.02 133.38 16.50 133.64 19.00 133.59 C 28.33 133.48 37.67 133.53 47.00 133.53 C 52.18 133.48 57.39 133.92 62.52 132.99 C 62.54 116.35 62.54 99.70 62.52 83.06 C 60.37 82.77 58.20 82.52 56.03 82.52 C 43.35 82.61 30.66 82.62 17.97 82.52 C 15.82 82.52 13.67 82.75 11.54 83.04 M 74.07 83.05 C 73.09 88.99 73.72 95.02 73.60 101.00 C 73.87 111.68 73.00 122.41 74.03 133.05 C 75.67 133.26 77.31 133.47 78.97 133.55 C 112.99 133.53 147.02 133.47 181.05 133.58 C 182.90 133.55 184.73 133.32 186.56 133.07 C 186.58 116.39 186.64 99.72 186.53 83.05 C 184.71 82.82 182.89 82.61 181.06 82.56 C 147.36 82.58 113.66 82.63 79.97 82.53 C 77.99 82.56 76.03 82.80 74.07 83.05 M 74.23 152.46 C 72.85 157.19 73.49 162.15 73.44 167.00 C 73.44 176.68 73.53 186.37 73.33 196.05 C 73.27 198.37 73.61 200.68 74.03 202.96 C 80.26 204.39 86.68 203.42 93.00 203.64 C 103.43 203.37 113.90 204.22 124.30 203.29 C 124.65 200.88 124.92 198.45 124.85 196.02 C 124.62 187.02 124.79 178.01 124.72 169.00 C 124.66 163.57 125.21 158.10 124.35 152.70 C 117.60 151.80 110.78 152.63 104.00 152.39 C 94.08 152.52 84.15 152.13 74.23 152.46 Z" />
</g>
<g id="#abebf4ff">
<path fill="#abebf4" opacity="1.00" d=" M 73.33 12.33 C 74.86 11.93 76.39 11.46 77.98 11.40 C 123.99 11.53 170.00 11.41 216.01 11.46 C 221.32 11.53 226.71 10.86 231.95 12.05 C 232.41 14.33 232.77 16.63 232.71 18.95 C 232.53 31.65 232.54 44.35 232.71 57.05 C 232.65 59.31 232.75 61.68 231.80 63.79 C 227.74 65.37 223.25 64.53 218.99 64.65 C 175.33 64.60 131.66 64.65 88.00 64.63 C 83.53 64.54 78.98 65.18 74.58 64.28 C 72.46 63.53 73.11 60.81 72.78 59.07 C 72.71 50.05 72.88 41.02 72.82 32.00 C 72.93 25.44 72.27 18.84 73.33 12.33 M 74.51 13.66 C 74.09 22.77 74.46 31.89 74.34 41.00 C 74.48 48.37 73.98 55.76 74.64 63.12 C 76.42 63.20 78.21 63.29 80.00 63.33 C 124.66 63.29 169.34 63.33 214.01 63.31 C 219.52 63.26 225.06 63.65 230.55 62.91 C 230.67 46.58 230.56 30.23 230.61 13.90 C 228.76 13.68 226.90 13.48 225.05 13.45 C 180.36 13.55 135.68 13.46 91.00 13.50 C 85.50 13.49 80.00 13.35 74.51 13.66 Z" />
<path fill="#abebf4" opacity="1.00" d=" M 74.23 152.46 C 84.15 152.13 94.08 152.52 104.00 152.39 C 110.78 152.63 117.60 151.80 124.35 152.70 C 125.21 158.10 124.66 163.57 124.72 169.00 C 124.79 178.01 124.62 187.02 124.85 196.02 C 124.92 198.45 124.65 200.88 124.30 203.29 C 113.90 204.22 103.43 203.37 93.00 203.64 C 86.68 203.42 80.26 204.39 74.03 202.96 C 73.61 200.68 73.27 198.37 73.33 196.05 C 73.53 186.37 73.44 176.68 73.44 167.00 C 73.49 162.15 72.85 157.19 74.23 152.46 Z" />
</g>
<g id="#02a5c2ff">
<path fill="#02a5c2" opacity="1.00" d=" M 74.51 13.66 C 80.00 13.35 85.50 13.49 91.00 13.50 C 135.68 13.46 180.36 13.55 225.05 13.45 C 226.90 13.48 228.76 13.68 230.61 13.90 C 230.56 30.23 230.67 46.58 230.55 62.91 C 225.06 63.65 219.52 63.26 214.01 63.31 C 169.34 63.33 124.66 63.29 80.00 63.33 C 78.21 63.29 76.42 63.20 74.64 63.12 C 73.98 55.76 74.48 48.37 74.34 41.00 C 74.46 31.89 74.09 22.77 74.51 13.66 Z" />
</g>
<g id="#5fcadeff">
<path fill="#5fcade" opacity="1.00" d=" M 11.54 83.04 C 13.67 82.75 15.82 82.52 17.97 82.52 C 30.66 82.62 43.35 82.61 56.03 82.52 C 58.20 82.52 60.37 82.77 62.52 83.06 C 62.54 99.70 62.54 116.35 62.52 132.99 C 57.39 133.92 52.18 133.48 47.00 133.53 C 37.67 133.53 28.33 133.48 19.00 133.59 C 16.50 133.64 14.02 133.38 11.56 132.96 C 11.49 116.32 11.53 99.68 11.54 83.04 Z" />
<path fill="#5fcade" opacity="1.00" d=" M 74.07 83.05 C 76.03 82.80 77.99 82.56 79.97 82.53 C 113.66 82.63 147.36 82.58 181.06 82.56 C 182.89 82.61 184.71 82.82 186.53 83.05 C 186.64 99.72 186.58 116.39 186.56 133.07 C 184.73 133.32 182.90 133.55 181.05 133.58 C 147.02 133.47 112.99 133.53 78.97 133.55 C 77.31 133.47 75.67 133.26 74.03 133.05 C 73.00 122.41 73.87 111.68 73.60 101.00 C 73.72 95.02 73.09 88.99 74.07 83.05 Z" />
</g>
</svg>

<?xml version="1.0" encoding="utf-8"?>
<!-- Generator: Adobe Illustrator 26.0.3, SVG Export Plug-In . SVG Version: 6.00 Build 0)  -->
<svg version="1.1" id="Layer_1" xmlns="http://www.w3.org/2000/svg" xmlns:xlink="http://www.w3.org/1999/xlink" x="0px" y="0px"
	 viewBox="0 0 250 214" style="enable-background:new 0 0 250 214;" xml:space="preserve">
<style type="text/css">
	.st0{fill:#ABEBF4;}
	.st1{fill:#02A5C2;}
	.st2{fill:#5FCADE;}
</style>
<g id="_x23_abebf4ff">
	<path class="st0" d="M73.3,12.3c1.5-0.4,3.1-0.9,4.7-0.9c46,0.1,92,0,138,0.1c5.3,0.1,10.7-0.6,15.9,0.6c0.5,2.3,0.8,4.6,0.8,6.9
		c-0.2,12.7-0.2,25.4,0,38.1c-0.1,2.3,0,4.6-0.9,6.7c-4.1,1.6-8.6,0.7-12.8,0.9c-43.7-0.1-87.3,0-131,0c-4.5-0.1-9,0.6-13.4-0.3
		c-2.1-0.8-1.5-3.5-1.8-5.2c-0.1-9,0.1-18,0-27.1C72.9,25.4,72.3,18.8,73.3,12.3 M74.5,13.7c-0.4,9.1-0.1,18.2-0.2,27.3
		c0.1,7.4-0.4,14.8,0.3,22.1c1.8,0.1,3.6,0.2,5.4,0.2c44.7,0,89.3,0,134,0c5.5-0.1,11.1,0.3,16.5-0.4c0.1-16.3,0-32.7,0.1-49
		c-1.9-0.2-3.7-0.4-5.6-0.4c-44.7,0.1-89.4,0-134.1,0.1C85.5,13.5,80,13.4,74.5,13.7z"/>
	<path class="st0" d="M74.2,152.5c9.9-0.3,19.8,0.1,29.8-0.1c6.8,0.2,13.6-0.6,20.3,0.3c0.9,5.4,0.3,10.9,0.4,16.3
		c0.1,9-0.1,18,0.1,27c0.1,2.4-0.2,4.9-0.5,7.3c-10.4,0.9-20.9,0.1-31.3,0.4c-6.3-0.2-12.7,0.8-19-0.7c-0.4-2.3-0.8-4.6-0.7-6.9
		c0.2-9.7,0.1-19.4,0.1-29.1C73.5,162.1,72.8,157.2,74.2,152.5z"/>
</g>
<g id="_x23_02a5c2ff">
	<path class="st1" d="M74.5,13.7c5.5-0.3,11-0.2,16.5-0.2c44.7,0,89.4,0.1,134.1-0.1c1.8,0,3.7,0.2,5.6,0.4
		c-0.1,16.3,0.1,32.7-0.1,49c-5.5,0.7-11,0.3-16.5,0.4c-44.7,0-89.3,0-134,0c-1.8,0-3.6-0.1-5.4-0.2C74,55.8,74.5,48.4,74.3,41
		C74.5,31.9,74.1,22.8,74.5,13.7z"/>
</g>
<g id="_x23_5fcadeff">
	<path class="st2" d="M11.5,83c2.1-0.3,4.3-0.5,6.4-0.5c12.7,0.1,25.4,0.1,38.1,0c2.2,0,4.3,0.2,6.5,0.5c0,16.6,0,33.3,0,49.9
		c-5.1,0.9-10.3,0.5-15.5,0.5c-9.3,0-18.7-0.1-28,0.1c-2.5,0.1-5-0.2-7.4-0.6C11.5,116.3,11.5,99.7,11.5,83z"/>
	<path class="st2" d="M74.1,83.1c2-0.2,3.9-0.5,5.9-0.5c33.7,0.1,67.4,0.1,101.1,0c1.8,0.1,3.7,0.3,5.5,0.5c0.1,16.7,0.1,33.3,0,50
		c-1.8,0.2-3.7,0.5-5.5,0.5c-34-0.1-68.1-0.1-102.1,0c-1.7-0.1-3.3-0.3-4.9-0.5c-1-10.6-0.2-21.4-0.4-32.1
		C73.7,95,73.1,89,74.1,83.1z"/>
</g>
</svg>
